X: 122117
T: Lough Melvin
C: Joe Liddy
Z: BB
S: "The Leitrim Fiddler" (Dublin 1981)
L: 1/8
M: 4/4
R: reel
Q: 1/4 = 180
K: D
dB | AF F2 AFED | AF F2 ABdB | AF F2 AFED | E2 (3FED E2 dB|
AF F2 AFED | AF F2 ABdB | AF F2 DEFA | BdAF D2 :|
de | f2 fd e2 fe | d2 ed BAFB | AF F2 DEFA | BdAF E2 de|
f2 fd e2 fe | d2 ed BAFE | DEFA dfeB | dBAF D2 :|
%%%%%%%%%%%%%%%%%%%%
